src/24/panel/steadyflow-alert-panel.svg

<svg xmlns="http://www.w3.org/2000/svg" width="24" height="24" version="1.1">
 <defs>
  <style id="current-color-scheme" type="text/css">
   .ColorScheme-Text { color:#dfdfdf; } .ColorScheme-Highlight { color:#4285f4; }
  </style>
 </defs>
 <path style="fill:currentColor" class="ColorScheme-Text" d="M 13.5,5 C 11.9613,5 10.529878,5.7888906 9.7050781,7.0878906 9.4743581,7.0308906 9.23768,7.001 9,7 7.3431,7 6,8.3431 6,10 6.0011,10.4065 6.0848637,10.808541 6.2460938,11.181641 4.3242937,11.738641 3.0015,13.499 3,15.5 3,17.9853 5.0147,20 7.5,20 l 6.445312,0 -3.814453,-4.162109 A 0.50005,0.50005 0 0 1 10.5,15.037109 l 2.5,0 0,-4.5 a 0.50005,0.50005 0 0 1 0.5,-0.5 l 5,0 a 0.50005,0.50005 0 0 1 0.210938,0.04687 c -0.226,-0.1629996 -0.463797,-0.3126059 -0.716797,-0.4414059 0.0024,-0.035 0.0043,-0.069969 0.0059,-0.1054687 0,-2.4853 -2.0147,-4.5 -4.5,-4.5 L 13.5,5 Z m 5.402344,5.201172 A 0.50005,0.50005 0 0 1 19,10.5 l 0,4.5 1.957031,0 C 20.972191,14.8337 21,14.6703 21,14.5 20.9977,12.8014 20.204554,11.230272 18.902344,10.201172 Z"/>
 <path style="fill:currentColor" class="ColorScheme-Highlight" d="m 14.0003,11.0012 0,4.5 a 0.50005,0.50005 0 0 1 -0.5,0.5 l -1.8633,0 4.3633,4.7598 4.3633,-4.7598 -1.8633,0 a 0.50005,0.50005 0 0 1 -0.5,-0.5 l 0,-4.5 -4,0 z"/>
</svg>

<svg xmlns="http://www.w3.org/2000/svg" width="24" height="24"><path d="M13.5 5c-1.539 0-2.97.789-3.795 2.088A2.993 2.993 0 0 0 9 7a3 3 0 0 0-3 3 3 3 0 0 0 .246 1.182A4.5 4.5 0 0 0 3 15.5 4.5 4.5 0 0 0 7.5 20h6.445l-3.814-4.162a.5.5 0 0 1 .369-.8H13v-4.5a.5.5 0 0 1 .5-.5h5a.5.5 0 0 1 .21.046 5.466 5.466 0 0 0-.716-.441A4.5 4.5 0 0 0 18 9.537a4.5 4.5 0 0 0-4.5-4.5V5zm5.402 5.201A.5.5 0 0 1 19 10.5V15h1.957c.015-.166.043-.33.043-.5a5.491 5.491 0 0 0-2.098-4.299z" fill="currentColor" color="#d3dae3"/><path d="M14 11.001v4.5a.5.5 0 0 1-.5.5h-1.863L16 20.761l4.364-4.76H18.5a.5.5 0 0 1-.5-.5v-4.5h-4z" fill="currentColor" color="#5294e2"/></svg>
